X:1
T:He’s Coming Again
T:He’s Coming Again
T:Franklin Lycurgus Eiland
T:Franklin Lycurgus Eiland, 1905
T:Public Domain Courtesy of the Cyber Hymnal™
C:Franklin Lycurgus Eiland
Z:Public Domain
Z:Courtesy of the Cyber Hymnal™
%%score ( 1 2 ) ( 3 4 )
L:1/8
Q:1/4=95
M:6/8
K:Eb
V:1 treble 
V:2 treble 
V:3 bass 
V:4 bass 
V:1
 [B,E] | [EG][GB][GB] [EG][B,F][B,E] | [B,E][B,F][EG] [GB]2 z | [Ge]3 [Af][Ae][Ac] | %4
w: 1.~O|would you be num- bered as|one of His fold?|Be spot- less with-|
w: 2.~Not|known is the mo- ment when|He shall ap- pear,|To ga- ther them|
w: 3.~The|voice of His Spir- it says,|rea- dy, then be,|O will you be-|
w: 4.~Risk|not, an ac- cept- ance of|Him in that day,|All co- vered with|
 [Ge]3- [Ge]2 [B,E] | [EG][GB][GB] [EG][B,F][B,E] | [B,E][B,F][EG] [GB]2 z | [EG]3 [DF][EG][B,F] | %8
w: in; * Be|watch- ing and wait- ing that|sight to be- hold,|He’s com- ing a-|
w: in; * The|souls who have fol- lowed Him|faith- ful- ly here;|He’s com- ing a-|
w: gin? * If|peace in His pre- sence you|hope then to see;|He’s com- ing a-|
w: sin, * Be|robed and all rea- dy, the|Spir- it doth say,|He’s com- ing a-|
 [B,E]3- [B,E]2 z ||"^Refrain" [GB]3 [EG][GB][GB] | (B2 !fermata!z z) x3 | [Ge]3 [Af][Ae][Ac] | %12
w: gain! *||||
w: gain! *||||
w: gain! *|He’s com- ing a-|gain!|He’s com- ing a-|
w: gain! *||||
 ([Ge-]3 !fermata!e2) [B,E] | [EG][GB][GB] [EG][B,F][B,E] | [B,E][B,F][EG] [GB]2 z | %15
w: |||
w: |||
w: gain! * Be|watch- ing and wait- ing that|sight to be- hold;|
w: |||
 [EG]3 [DF][EG][B,F] | [B,E]3- [B,E]2 |] %17
w: ||
w: ||
w: He’s com- ing a-|gain! *|
w: ||
V:2
 x | x6 | x6 | x6 | x6 | x6 | x6 | x6 | x6 || x6 | G3 (B2 AG) | x6 | x3 (^FG) x | x6 | x6 | x6 | %16
 x5 |] %17
V:3
 [E,G,] | [E,B,][E,E][E,E] [E,B,][E,A,][E,G,] | [E,G,][E,A,][E,B,] [E,E]2 z | %3
 [E,B,]3 [A,C][A,C][A,E] | (E2 B, [E,B,]2) [E,G,] | [E,B,][E,E][E,E] [E,B,][E,A,][E,G,] | %6
 [E,G,][E,A,][E,B,] [E,E]2 z | [E,B,]3 [B,,A,][B,,B,][B,,A,] | [E,G,]3- [E,G,]2 z || %9
 [E,E]3 [E,B,][E,E][E,E] | ([E,E]3 [B,,F]!fermata![E,E]) z x | [E,B,]3 [A,C][A,C][A,E] | %12
 (E2 [C,C] !fermata![E,B,])[E,G,] x | [E,B,][E,E][E,E] [E,B,][E,A,][E,G,] | %14
 [E,G,][E,A,][E,B,] [E,E]2 z | [E,B,]3 [B,,A,][B,,B,][B,,A,] | [E,G,]3- [E,G,]2 |] %17
V:4
 x | x6 | x6 | x6 | E,3- x3 | x6 | x6 | x6 | x6 || x6 | x7 | x6 | E,3 B, x2 | x6 | x6 | x6 | x5 |] %17

